X: 1042
T: Always Able
R: jig
M: 6/8
K: Eminor
|:EGB Ace|Bdf e2f|gfe gfe|gfe f3|
EGB Ace|Bdf e2f|gfe b2e|1 B2d e2F:|2 B2d e2f||
|:gfg dcB|GBd g3|f^ef B3|e^de BAG|
ABc E3|GAB E3|G3 F3|1 EGB e2f:|2 EGB e2F||

